svg/retweetFill.svg

<svg width="284" height="284" viewBox="0 0 284 284" xmlns="http://www.w3.org/2000/svg">
    <path d="M69.415 51C54.826 51 43 62.826 43 77.415v21.562c13.462.816 26.924 1.66 40.387 3.298v-2.852c0-1.555.539-2.873 1.616-3.951 1.078-1.078 2.335-1.616 3.771-1.616h73.269V75.335c0-2.514.686-4.069 2.064-4.67 1.376-.596 3.081 0 5.118 1.796l28.913 26.579c1.436 1.197 2.154 2.634 2.154 4.308 0 1.678-.718 3.115-2.154 4.311l-28.913 26.578c-2.037 1.795-3.742 2.396-5.118 1.795-1.378-.596-2.064-2.154-2.064-4.669v-18.521h-58.209v13.493L83.387 145.37v-43.095C69.924 100.637 56.462 99.793 43 98.977V206.29c0 14.589 11.826 26.415 26.415 26.415h79.314c-.377-14.258-.427-28.354-.431-42.856h-26.662v18.521c0 2.514-.686 4.069-2.064 4.67-1.376.596-3.081 0-5.118-1.796l-28.913-26.578c-1.437-1.198-2.154-2.634-2.154-4.309 0-1.678.717-3.115 2.154-4.311l28.913-26.578c2.037-1.795 3.742-2.396 5.118-1.795 1.378.597 2.064 2.155 2.064 4.669v18.521h58.209V157.37l20.447-19.035v45.947c0 1.555-.539 2.873-1.616 3.95-1.078 1.079-2.335 1.617-3.771 1.617h-46.607c.004 14.502.054 28.598.431 42.856h65.535c14.589 0 26.415-11.826 26.415-26.415V77.415c0-14.589-11.826-26.415-26.415-26.415H69.415z" fill="#1A1918" fill-rule="evenodd"/>
</svg>

<svg width="284" height="284" viewBox="0 0 284 284" fill="none" xmlns="http://www.w3.org/2000/svg">
<path fill-rule="evenodd" clip-rule="evenodd" d="M69.415 51C54.826 51 43 62.826 43 77.415V98.977C56.462 99.793 69.924 100.637 83.387 102.275V99.423C83.387 97.868 83.926 96.55 85.003 95.472C86.081 94.394 87.338 93.856 88.774 93.856H162.043V75.335C162.043 72.821 162.729 71.266 164.107 70.665C165.483 70.069 167.188 70.665 169.225 72.461L198.138 99.04C199.574 100.237 200.292 101.674 200.292 103.348C200.292 105.026 199.574 106.463 198.138 107.659L169.225 134.237C167.188 136.032 165.483 136.633 164.107 136.032C162.729 135.436 162.043 133.878 162.043 131.363V112.842H103.834V126.335L83.387 145.37V102.275C69.924 100.637 56.462 99.793 43 98.977V206.29C43 220.879 54.826 232.705 69.415 232.705H148.729C148.352 218.447 148.302 204.351 148.298 189.849H121.636V208.37C121.636 210.884 120.95 212.439 119.572 213.04C118.196 213.636 116.491 213.04 114.454 211.244L85.541 184.666C84.104 183.468 83.387 182.032 83.387 180.357C83.387 178.679 84.104 177.242 85.541 176.046L114.454 149.468C116.491 147.673 118.196 147.072 119.572 147.673C120.95 148.27 121.636 149.828 121.636 152.342V170.863H179.845V157.37L200.292 138.335V184.282C200.292 185.837 199.753 187.155 198.676 188.232C197.598 189.311 196.341 189.849 194.905 189.849H148.298C148.302 204.351 148.352 218.447 148.729 232.705H214.264C228.853 232.705 240.679 220.879 240.679 206.29V77.415C240.679 62.826 228.853 51 214.264 51H69.415Z" fill="#1A1919"/>
</svg>
